X:1
T:Standin In The Need of Prayer
T:The ten virgins
T:Copyright 1881 by The Riverside Press
T:Rodeheaver's Plantation Melodies
Z:Rodeheaver's Plantation Melodies
%%score [ 1 2 3 4 ]
L:1/8
Q:1/4=100
M:4/4
K:A
V:1 treble nm="Soprano" snm="S."
V:2 treble nm="Alto" snm="A."
V:3 bass nm="Tenor" snm="T."
V:4 bass nm="Bass" snm="B."
V:1
 E | A2 A2 A2 A2 | (G2 F2) E2 E2 | (F B3) B4 | B6 z2 | B2 B2 B2 B2 | (B2 A2) G2 F2 | (E A3) A4 | %8
w: |Five of them were|wise- , * *||||||
 A6 z2 |: c8 | B2 A6 | A8 | G2 F6 | F8 | E2 A2 A2 B2 | c4 B4 | A6 z2!D.C.! :| %17
w: |||||||||
V:2
 z | z8 | z4 E2 E2 | D4 D4 | D6 z2 | G2 G2 G2 G2 | (G2 F2) E2 D2 | C4 C4 | C6 z2 |: E8 | D2 C6 | %11
w: ||when the|bride- groom|came,|Five of them were|wise- * when the|bride- groom|came.|O|Zi- on|
 F8 | E2 D6 | D8 | C2 C2 C2 D2 | E4 D4 | C6 z2 :| %17
w: O|Zi- on|O|Zi- on when the|bride- groom|came.|
V:3
 z | z8 | z4 A,2 A,2 | G,4 G,4 | G,6 z2 | B,2 B,2 B,2 B,2 | (B,2 A,2) A,2 F,2 | (E, A,3) A,4 | %8
 A,6 z2 |: A,8 | A,2 A,6 | A,8 | A,2 A,6 | A,8 | A,2 A,2 A,2 A,2 | A,4 G,4 | A,6 z2 :| %17
V:4
 z | z8 | z4 E,2 E,2 | E,4 E,4 | E,6 z2 | G,2 G,2 G,2 G,2 | E,4 E,4 | A,,4 A,,4 | A,,6 z2 |: %9
"_2. Five of them were foolish when the bridegroom came.\n\n3. The wise they took oil when the bridegroom came.\n\n4. The foolish took no oil when the bridegroom came.\n\n5. The foolish they kept knocking when the bridegroom came.\n\n6. Depart, I never knew you, said the bridegroom then." A,,8 | %10
 A,,2 A,,6 | D,8 | D,2 D,6 | D,8 | E,2 E,2 E,2 E,2 | E,4 E,4 | A,,6 z2 :| %17

